krita/pics/Breeze-dark/dark_im-user.svg

<!--Created with Inkscape (http://www.inkscape.org/)--><svg xmlns:dc="http://purl.org/dc/elements/1.1/" xmlns:cc="http://creativecommons.org/ns#" xmlns:rdf="http://www.w3.org/1999/02/22-rdf-syntax-ns#" xmlns="http://www.w3.org/2000/svg" xmlns:sodipodi="http://sodipodi.sourceforge.net/DTD/sodipodi-0.dtd" xmlns:inkscape="http://www.inkscape.org/namespaces/inkscape" width="22" height="22" id="svg3049" version="1.1" inkscape:version="0.48+devel r" sodipodi:docname="im-invisible-user.svg" inkscape:export-filename="/home/uri/.kde/share/icons/NITRUX-KDE/16x16/actions/view-right-new.png" inkscape:export-xdpi="30" inkscape:export-ydpi="30"><sodipodi:namedview id="base" pagecolor="#ffffff" bordercolor="#666666" borderopacity="1.0" inkscape:pageopacity="0.0" inkscape:pageshadow="2" inkscape:zoom="51.739549" inkscape:cx="3.0347309" inkscape:cy="9.6794996" inkscape:document-units="px" inkscape:current-layer="layer1" showgrid="true" fit-margin-top="0" fit-margin-left="0" fit-margin-right="0" fit-margin-bottom="0" inkscape:window-width="1366" inkscape:window-height="668" inkscape:window-x="-2" inkscape:window-y="23" inkscape:window-maximized="1" inkscape:showpageshadow="false" borderlayer="true"><sodipodi:guide position="2.0000044,20.00003" orientation="18,0" id="guide4067"/><sodipodi:guide position="2.0000044,2.0000296" orientation="0,18" id="guide4069"/><sodipodi:guide position="20.000004,2.0000296" orientation="-18,0" id="guide4071"/><sodipodi:guide position="20.000004,20.00003" orientation="0,-18" id="guide4073"/><sodipodi:guide position="3.0000044,19.00003" orientation="16,0" id="guide4077"/><sodipodi:guide position="3.0000044,3.0000296" orientation="0,16" id="guide4079"/><sodipodi:guide position="19.000004,3.0000296" orientation="-16,0" id="guide4081"/><sodipodi:guide position="19.000004,19.00003" orientation="0,-16" id="guide4083"/><inkscape:grid type="xygrid" id="grid4085"/></sodipodi:namedview><metadata id="metadata3054"><rdf:RDF><cc:Work><dc:format>image/svg+xml</dc:format><dc:type rdf:resource="http://purl.org/dc/dcmitype/StillImage"/><dc:title/></cc:Work></rdf:RDF></metadata><g inkscape:label="Capa 1" inkscape:groupmode="layer" id="layer1" transform="translate(-421.714 -525.79)"><path style="opacity:1;fill:#373737;fill-opacity:1;stroke:none" d="M11 3C9.338 3 8 4.338 8 6s1.338 3 3 3 3-1.338 3-3-1.338-3-3-3zm0 8c-2.77 0-5 .892-5 2v6h10v-6c0-1.108-2.23-2-5-2zm0 1c2.216 0 4 .636 4 1.428V18H7v-4.572C7 12.636 8.784 12 11 12z" transform="translate(421.714 525.79)" id="rect4109"/></g></svg>

<?xml version="1.0" encoding="UTF-8" standalone="no"?>
<!-- Created with Inkscape (http://www.inkscape.org/) -->

<svg
   xmlns:dc="http://purl.org/dc/elements/1.1/"
   xmlns:cc="http://creativecommons.org/ns#"
   xmlns:rdf="http://www.w3.org/1999/02/22-rdf-syntax-ns#"
   xmlns:svg="http://www.w3.org/2000/svg"
   xmlns="http://www.w3.org/2000/svg"
   xmlns:sodipodi="http://sodipodi.sourceforge.net/DTD/sodipodi-0.dtd"
   xmlns:inkscape="http://www.inkscape.org/namespaces/inkscape"
   width="22"
   height="22"
   id="svg3049"
   version="1.1"
   inkscape:version="0.48+devel r"
   sodipodi:docname="im-invisible-user.svg"
   inkscape:export-filename="/home/uri/.kde/share/icons/NITRUX-KDE/16x16/actions/view-right-new.png"
   inkscape:export-xdpi="30"
   inkscape:export-ydpi="30">
  <defs
     id="defs3051" />
  <sodipodi:namedview
     id="base"
     pagecolor="#ffffff"
     bordercolor="#666666"
     borderopacity="1.0"
     inkscape:pageopacity="0.0"
     inkscape:pageshadow="2"
     inkscape:zoom="51.739549"
     inkscape:cx="3.0347309"
     inkscape:cy="9.6794996"
     inkscape:document-units="px"
     inkscape:current-layer="layer1"
     showgrid="true"
     fit-margin-top="0"
     fit-margin-left="0"
     fit-margin-right="0"
     fit-margin-bottom="0"
     inkscape:window-width="1366"
     inkscape:window-height="668"
     inkscape:window-x="-2"
     inkscape:window-y="23"
     inkscape:window-maximized="1"
     inkscape:showpageshadow="false"
     borderlayer="true">
    <sodipodi:guide
       position="2.0000044,20.00003"
       orientation="18,0"
       id="guide4067" />
    <sodipodi:guide
       position="2.0000044,2.0000296"
       orientation="0,18"
       id="guide4069" />
    <sodipodi:guide
       position="20.000004,2.0000296"
       orientation="-18,0"
       id="guide4071" />
    <sodipodi:guide
       position="20.000004,20.00003"
       orientation="0,-18"
       id="guide4073" />
    <sodipodi:guide
       position="3.0000044,19.00003"
       orientation="16,0"
       id="guide4077" />
    <sodipodi:guide
       position="3.0000044,3.0000296"
       orientation="0,16"
       id="guide4079" />
    <sodipodi:guide
       position="19.000004,3.0000296"
       orientation="-16,0"
       id="guide4081" />
    <sodipodi:guide
       position="19.000004,19.00003"
       orientation="0,-16"
       id="guide4083" />
    <inkscape:grid
       type="xygrid"
       id="grid4085" />
  </sodipodi:namedview>
  <metadata
     id="metadata3054">
    <rdf:RDF>
      <cc:Work
         rdf:about="">
        <dc:format>image/svg+xml</dc:format>
        <dc:type
           rdf:resource="http://purl.org/dc/dcmitype/StillImage" />
        <dc:title />
      </cc:Work>
    </rdf:RDF>
  </metadata>
  <g
     inkscape:label="Capa 1"
     inkscape:groupmode="layer"
     id="layer1"
     transform="translate(-421.71429,-525.79074)">
    <path
       style="opacity:1;fill:#373737;fill-opacity:1;stroke:none"
       d="M 11 3 C 9.338 3 8 4.338 8 6 C 8 7.662 9.338 9 11 9 C 12.662 9 14 7.662 14 6 C 14 4.338 12.662 3 11 3 z M 11 11 C 8.23 11 6 11.891984 6 13 L 6 18 L 6 19 L 7.2011719 19 L 14.798828 19 L 16 19 L 16 18 L 16 13 C 16 11.891984 13.77 11 11 11 z M 11 12 C 13.216 12 15 12.636298 15 13.427734 L 15 18 L 7 18 L 7 13.427734 C 7 12.636298 8.784 12 11 12 z "
       transform="translate(421.71429,525.79074)"
       id="rect4109" />
  </g>
</svg>
